X: 3
T: The Queen Of The Rushes
R: jig
M: 6/8
L: 1/8
K: Dmix
AG|:F2D DAF|G2E EDE|F2D DAD|AFD DAG|F2D DAF|G2E EDE|F2A GEA|1DED DAG:|2DED D2|:B|c2A Bcd|ecA AGE|d2e fed|ecA AGE|c2A Bcd|ecA AGE|~F3 GEA|1DED D2:|2DED D|:EG|~A3 dAF|~A3 dAF|~G3 EGE|cBc EFG|~A3 dAF|~A3 dAG|EFF GEA|DED D:|


Tune 710	Setting 27807

